X:1
T:Lady, your words do spite me - Wilbye
T:#
%%score 1 2 3 4
L:1/8
Q:1/4=120
M:4/4
K:G
V:1 treble nm="Soprano I"
V:2 treble nm="Soprano II"
V:3 treble nm="Alto" snm="A"
V:4 treble-8 nm="Tenor" snm="T"
V:1
"^Lady, your words do spite me""^John Wilbye\n (1574-1638)"!f! G8 | d8 | z2 d2 B2 d2 | A6 D2 | %4
w: La-|dy,|your words do|spite me,|
 z4 z2 d2- | d2 B4 G2 |[M:4/4] (B6 c2) | d4 z4 | z2 e2 e2 d2 | c8 | B2!p! d2 B3 c | d2 e2 d4 | %12
w: your|* words do|spite *|me,|your words do|spite|me, Yet your sweet|lips, so soft,|
 z2"^cresc." d3 d D2 | A8 | F2!p! A3 A G2 | (F2 G4 F2) | G4 z2"^cresc." d2- | d2 B4 d2 | %18
w: kiss and de-|light|me, kiss and de-|light * *|me, Your|* deeds my|
 G2 G2 c4- | c2 B2 A2 G2 | A8 | B8 | z8 | z8 | z8 | z4!f! d4 | d4 d4 | B3 c d4 | G8 | z8 | %30
w: heart sur- charg'd|* with o- ver-|joy-|ing,||||Your|taunts my|life des- troy-|ing,||
 z2 d4 d2- | d2 d2 c2 B2 | (A2 G2 A4) | G8 | z8 | z8 | z8 |!p! G4 c4 | B4 A2 (G2- | G2 FE) F4 | %40
w: your taunts|* my life des-|troy\- * *|ing.||||Since both|have force to|* * * spill|
 G6!f! d2 | e3 e d2!p! G2 | G3 G G2"^cresc." c2 | (B2 A2) G4- | G2!p! G2 G3 G | G2 d2 e3 e | %46
w: me, Let|kiss- es sweet, let|kiss- es sweet, Sweet,|kill * me,|* let kiss- es|sweet, let kiss- es|
 d2 G4 F2 | G2!f! d2 d2 B2 | d2 e2 d(c c2- | c2 B2) c2 c2 | c2 A2 (Bc d2- | d)d ^c2 d4 | z2 A4 c2 | %53
w: sweet, Sweet, kill|me. Knights fight with|swords and lan\- * *|* * ces, Fight|you with smil\- * *|* ing glan- ces,|So, like|
 B2 AA B4 | A2 G2 G2 B2 | A2 G2 A4 | B8 ||[M:3/2]!p![Q:1/4=180] B12 | B4 A8 | G12- | G4 F8 | E12- | %62
w: swans of Mae- an-|der, My ghost from|thence shall wan-|der,|Sing-|ing and|dy\-|* ing,|sing\-|
 E4 G8 |"^dim." B4 A8- | A12 | G24 |] %66
w: * ing|and dy\-||ing.|
V:2
 z8 | z8 | z8 | z8 | z8 |!f! G8 |[M:4/4] d4 z4 | z4 c4 | B2 (A3 G) (G2- | G2 FE F4) | G6!p! d2 | %11
w: |||||La-|dy,|you|words do * spite||me, Yet|
 B3 c d2 B2 | A2"^cresc." A3 A F2 | E8 | D2!p! d3 c B2 | (A2 G2 A4) | B8 | z8 | z8 | z8 | z8 | %21
w: your sweet lips, so|soft, kiss and de-|light|me, kiss and de-|light * *|me,|||||
 z4 z2!f! d2- | d2 B4 d2 | e6 d2 | c2 B2 A2 G2 | A8 | B8 | z4 z2 d2 | d2 c2 c2 B2 | c8 | B8 | %31
w: Your|* deeds my|heart o'er-|charg'd with o- ver-|joy-|ing,|Your|taunts my life des-|troy-|ing,|
 z2 d2 e2 e2 | d8 | d8 |!p! G4 c4 | B4 A2 G2 | F4 D4 | d4 e4 | d4 c2 B2 | A8 | B6!f! G2 | %41
w: my life des-|troy-|ing.|Since both|have force to|spill me,|since both|have force to|spill|me, Let|
 G3 G G2!p! d2 | e3 e d2"^cresc." G2- | G2 F2 G4 |!p! d4 e3 e | d2 G2 G3 G | G2 c2 (B2 A2) | %47
w: kiss- es sweet, let|kiss- es sweet, Sweet,||let kiss- es|sweet, let kiss- es|sweet, Sweet, kill *|
 G6!f! G2 | B2 G2 B2 c2 | d4 c2 G2 | A2 c2 B3 A | (GF G2) F4 | z2 =F4 A2 | ^G2 A3 A G2 | %54
w: me. Knights|fight with swords and|lan- ces, Fight|you with smil- ing|glan\- * * ces,|So, like|swans of Mae- an-|
 A2 E2 E2 =G2 | F2 G4 F2 | G8 ||[M:3/2]!p! G12 | G4 F8 | E12- | E4 D8 | C12- | C4 E8 | %63
w: der, My ghost from|thence shall wan-|der,|Sing-|ing and|dy\-|* ing,|sing\-|* ing|
"^dim." G8 (G4- | G4 F8) | G24 |] %66
w: and dy\-||ing.|
V:3
 z8 |!f! D8 | G8 | z2 A2 F2 A2 | G8- | G4 D4 |[M:4/4] D4 D2 G2 | F4 E4 | z2 E2 E2 G2 | C8 | %10
w: |La-|dy,|your words do|spite|* me,|your words do|spite me,|your words do|spite|
 D4!p! D4 | G3 G G2 G2 | E2"^cresc." F3 F D2 | (^C2 D4 C2) | D2!p! D3 D D2 | D8 | %16
w: me, Yet|your sweet lips, so|soft, kiss and de-|light * *|me, kiss and de-|light|
 D2"^cresc." D4 B,2- | B,2 G2 G3 =F | E6 D2 | (E^F) (GE) (F2 G2- | G2 FE F4) | G4!f! G4 | G4 G4 | %23
w: me, Your deeds|* my heart sur-|charg'd with|o\- * ver\- * joy\- *||ing, Your|deeds my|
 G6 =F2 | E3 D C2 D2 | D8 | D8 | z4 G4 | G4 G4 | E3 =F G4 | D4 D4 | B,2 G,2 C4- | C2 B,2 A,4 | %33
w: heart sur-|charg'd with o- ver-|joy-|ing,|Your|taunts my|life des- troy-|ing, your|taunts my life|* des- troy-|
 B,8 |!p! D4 E4 | D4 C2 B,2 | A,4 A,4 | B,4 C2 A,2 | D4 E4 | A,4 A,4 | z8 | z4 z2!p! B,2 | %42
w: ing.|Since both|have force to|spill me,|since both have|force to|spill me,||Let|
 C3 C B,2"^cresc." C2 | D4 D4- | D4 z4 | z2!p! B,2 C3 C | B,2 C2 D4 | D6!f! D2 | D2 G,2 G2 E2 | %49
w: kiss- es sweet, Sweet,|kill me,||let kiss- es|sweet, Sweet, kill|me. Knights|fight with swords and|
 G4 G2 G2 | =F2 F2 D2 D2- | D2 G,2 D4 | z2 D4 E2 | E2 A,A, E4 | E2 C2 C2 D2 | D2 G,2 D4 | D8 || %57
w: lan- ces, Fight|you with smil- ing|* glan- ces,|So, like|swans of Mae- an-|der, My ghost from|thence shall wan-|der,|
[M:3/2]!p! D12 | D4 D8 | B,12- | B,4 B,8 | G,12- | G,4 G,8 |"^dim." G,8 A,4- | A,12 | B,24 |] %66
w: Sing-|ing and|dy\-|* ing,|sing\-|* ing|and dy\-||ing.|
V:4
 z8 | z8 |!f! G8 | d8 | z2 d2 B2 d2 | B4 G4 |[M:4/4][K:treble-8] z2 G2 F2 G2 | A2 B2 c4 | %8
w: ||La-|dy,|your words do|spite me,|La- dy your|words do spite|
 G2 E2 G2 D2 | A8 | D2!p! B2 B2 G2 | d3 c B4 | z2"^cresc." A3 A A2 | A8 | A2!p! A3 A B2 | %15
w: me, your words do|spite|me, Yet your sweet|lips, so soft,|kiss and de-|light|me, kiss and de-|
 d2 B2 A4 | G4"^cresc." G4 | G4 G4 | c6 B2 | A2 G2 d2 e2 | d8 | d8 | z2!f! G2 G3 F | E2 E2 A4- | %24
w: light, de- light|me, Your|deeds my|heart sur-|charg'd with o- ver-|joy-|ing,|your deeds my|heart sur- charg'd|
 A2 G2 (E^F) (G2- | G2 FE) F4 | G4 B4 | d4 B4 | e2 e2 d4 | c8 | z4 G4 | G4 E4 | F2 G4 F2 | G8 | %34
w: * with o\- * ver|* * * joy-|ing, Your|taunts my|life des- troy-|ing,|your|taunts my|life des- troy-|ing.|
!p! G4 E2 F2 | G4 C4 | D4 D4 | z2 G4 A2 | B4 c2 G2 | d8 | d6!f! B2 | c3 c B2!p! G2 | E2 C2 G4 | %43
w: Since both have|force to|spill me,|since both|have force to|spill|me, Let|kiss- es sweet, let|kiss- es sweet,|
 z4!p! B4- | B4 c3 c | B2 G2 E2 C2 | G4 z2 A2 | B4 G2!f! B2 | B2 c2 B2 A2 | d4 e2 c2 | %50
w: let|* kiss- es|sweet, let kiss- es|sweet, Sweet,|kill me. Knights|fight with swords and|lan- ces, Fight|
 A2 A2 G2 G2 | G4 A4 | z2 A4 A2 | B2 dd B4 | c2 G2 G4 | A2 c3 B A2 | G8 ||[M:3/2]!p! B12 | B4 d8 | %59
w: you with smil- ing|glan- ces,|So, like|swans of Mae- an-|der, My ghost|from thence shall wan-|der,|Sing-|ing and|
 G12- | G4 D8 | E12- | E4 E8 |"^dim." D12 | D12 | D24 |] %66
w: dy\-|* ing,|sing\-|* ing|and|dy-|ing.|

